X:1
T:Title
%%score 1 { 2 | 3 }
L:1/8
Q:1/4=105
M:9/8
K:F
V:1 treble nm="Grand Piano, Soprano"
V:2 bass nm="Choir Pad, Let It Be Now"
V:3 bass 
V:1
 [FA][FG][FA] F3 [Fc]3 | [FB][FA][FG] [FA]3 F3 | [Fd][Fe][Fd] [Fc]3 [FA]2 F | [DF][DE]F [EG]6 | %4
w: By~Mary~L.~Stocks * * * *||||
 [GB][FA][EG] [FA]3 [Fc]3 | [Ff][Fe][Fd] [Fc]3 [FA]3 | [Fd][Fc][FB] [FA]3 F2 [FA] | %7
w: |||
 [CG][CF][CE] [CF]6 | [FB][FA][FG] [FA]3 [Fc]3 | [FB]F[FG] [FA]6- | [FA]3 z3 z3 |] %11
w: ||||
V:2
 CB,C A,3 A,3 | DCB, C3 A,3 | B,CB, A,3 C2 A, | =B,B,[K:treble]D C6 | CCC C3[K:bass] A,3 | %5
 B,CB, A,3[K:treble] C3 | B,CD C3[K:bass] A,2 C | B,A,G, A,6 | DDD C3 _E3 | DD^C =C6- | C3 z3 z3 |] %11
V:3
 F,F,F, F,3 F,3 | F,F,F, F,3 F,3 | B,,B,,B,, F,3 F,2 F, | G,G,G, C,6 | C,C,C, F,3 F,3 | %5
 B,,B,,B,, F,3 F,3 | z A,B, z3 C,2 C, | C,C,C, F,6 | B,B,B, F,3 F,3 | B,,B,,B,, F,6- | F,3 z3 z3 |] %11

